X:1699
L:1/8
M:4/4
K:C
 .abc ||[M:6/8][K:Amin] (3TA3 AGE | (TG2 E) E3 | A3 Bcd | ecA A2 B | A3 AGE | (TG2 E) (G2 E) | 
 D2 E G2 A |1 (TB2 G) G2 B :|2 (TB2 A) A2 c |: B2 d d2 B | (TG2 E) E3 | c2 A Bcd | ecA A2 c | 
 B2 d{e} d2 B | (TG2 E) (G2 E) | D2 E G2 A |1 (TB2 G) G2 c :|2 (B2 A) A2 B ||

